!!!OTL: Musikantenvierzeiler 3, S. 71
!!!id: S0081
**kern
*clefG2
*k[b-]
*F:
{16f
=1
16f
8a
8f
8f
16e
=2yy
16f
=3
8a
8f
8f}
=4
{8f
=5
8g
8g
8cc
8b-
=6
4a
4f}
=7
{8a
8f
8f
16e
16f
=8
8a
8f
8f}
=9
{8f
=10
8g
8g
8cc
8e
=11
4g
4f}
==
*-
!!!minrhy: 16
!!!meters: 2/4 ]  ZZ[4
!!!cut: Musikantenvierzeiler 3, S. 71
!!!reg: Luxemburg
!!!trd: Die Bauernhochzeit in fr&uuml;heren Zeiten
!!!rhy1:   X_X_X_XX  X_X_X_
!!!rhy2: X_  X_X_X_X_  X__X__
!!!key: S0081  16  F 2/4 ]  ZZ[4
!!!mod: SECHSTONSKALA DUR ?]  AMBITUS[6b
!!!kad: 1111
!!!akz: 33_23_33_22_
!!!fot: 'a__b__a__bw_
!!!for: 'a__b__a__b__
!!!fok: 'Sd_^__Sd_^__
!! PHRAS[GEMISCHTTAKTIG]
!!!fkt: Liebeslied, Brautwerbung
!! SPEDENER, G:
!! PR[25] 2K[6] 2G[13] 3K[6] 3G[2] 4A[2] 4Ü[0] 5A[0] 6K[0] 6G[0]
!! 7K[0] 7G[0] 8A[2] MEHR[0] SI[31] ABS[48] SR[19] SP[13]
!! ST[10] 2k[10] 2g[27] 3k[6] 3g[0] 4d[0] 4ü[0] 5d[0] 6k[0] 6g[0]
!! 7k[0] 7g[0] 8d[0] mehr[0] si[44] dm[-13] sr[38] sp[6]
!! 1F[4] 2F[83] 3F[10] 4F[0] LF[0] 2P[0] 3P[4] 4P[0] TRI[0] DF[4] AB[52]
!! TF[0] U3K[0] U3[0] U4[0] U4Ü[0] U5[6] U6K[0] U6[2] U7K[0] U7[8]
!! N1[16] N2K[0] N2[22] N3K[0] N3[20] N4[8] N4Ü[0] N5[14] N6K[0] N6[2]
!!!n7k: 0] N7[0] O1[0] O2K[0] O2[0] O3K[0] O3[0] HÖ[0
!!!RNB: symbol: &uuml;  = u umlaut (UTF-8: Ã¼)
